assets/youtube-bot.svg

<?xml version="1.0"?>
<svg width="400" height="400" xmlns="http://www.w3.org/2000/svg" xmlns:svg="http://www.w3.org/2000/svg" xmlns:xlink="http://www.w3.org/1999/xlink">
 <!-- Created with SVG-edit - https://github.com/SVG-Edit/svgedit-->
 <defs>
  <symbol height="278.86" id="svg_26" version="1.1" viewBox="0 0 138.30096109824444 139.43001089805875" width="276.6" xmlns="http://www.w3.org/2000/svg">
   <!-- svg-source:excalidraw -->
   <defs>
    <style class="style-fonts">@font-face {
        font-family: &quot;Virgil&quot;;
        src: url(&quot;https://excalidraw.com/Virgil.woff2&quot;);
      }
      @font-face {
        font-family: &quot;Cascadia&quot;;
        src: url(&quot;https://excalidraw.com/Cascadia.woff2&quot;);
      }</style>
   </defs>
   <g stroke-linecap="round" transform="translate(10 10) rotate(0 59.15048054912222 59.71500544902938)">
    <path d="m0,0l118.3,0l0,119.43l-118.3,0" fill="#000" stroke-width="0"/>
    <path d="m0,0c45.44,0 90.87,0 118.3,0m-118.3,0c35.27,0 70.55,0 118.3,0m0,0c0,46.38 0,92.77 0,119.43m0,-119.43c0,46.44 0,92.87 0,119.43m0,0c-39.87,0 -79.74,0 -118.3,0m118.3,0c-37.28,0 -74.56,0 -118.3,0m0,0c0,-43.91 0,-87.83 0,-119.43m0,119.43c0,-30.04 0,-60.08 0,-119.43" fill="none" stroke="#000000" stroke-width="4"/>
   </g>
   <g stroke-linecap="round" transform="translate(34.62133401598476 47.7382449063316) rotate(0 35.142404636641004 21.121394915338897)">
    <path d="m13.5,1.2l49.82,1.4l7.73,-0.99l-2.69,12.03l-0.25,19.8l2.77,8.19l-9.98,1.81l-53.73,-0.16l-4.01,-1.82l-5.39,-9.13l1.85,-25.17l6.66,-10.19l7.94,4.76" fill="#ffffff" stroke-width="0"/>
    <path d="m10.56,0m0,0c13.58,-0.84 26.02,1.38 49.16,0m-49.16,0c15.56,-0.29 30.04,-0.68 49.16,0m0,0c9.77,-3.11 6.88,6.22 10.56,10.56m-10.56,-10.56c7.63,-3.97 7.52,-0.94 10.56,10.56m0,0c-3.46,8.18 -0.33,6.91 0,21.12m0,-21.12c1.92,6.56 -0.55,8.58 0,21.12m0,0c-0.28,7.27 -5.96,11.54 -10.56,10.56m10.56,-10.56c0.04,9.04 -5.43,9.66 -10.56,10.56m0,0c-15.67,-0.91 -22.45,3.51 -49.16,0m49.16,0c-14,-0.5 -29.89,-0.16 -49.16,0m0,0c-9.56,2.51 -11.42,-2.64 -10.56,-10.56m10.56,10.56c-6.27,-2.21 -6.74,-4.72 -10.56,-10.56m0,0c-2.53,-4.52 2.26,-6.76 0,-21.12m0,21.12c-0.3,-7.68 -0.77,-12.31 0,-21.12m0,0c2.84,-3.95 4.98,-11.68 10.56,-10.56m-10.56,10.56c2.34,-7.59 -0.24,-6.94 10.56,-10.56" fill="none" stroke="#ffffff" stroke-width="4"/>
   </g>
   <g stroke-linecap="round">
    <g fill-rule="evenodd" transform="translate(60.14675898112546 55.827289767525144) rotate(0 11.647195648800334 12.910642331526105)">
     <path d="m-1.07,0.27l2.57,26.4l21.77,-12.81l-20.58,-12.76" fill="#000" fill-rule="evenodd" stroke-width="0"/>
     <path d="m1.62,1.01c-1.1,9.01 -3.31,18.35 -1.18,24.9m-0.14,-25.82c-1.14,6.93 0.26,12.12 -0.51,24.36m0.82,0.87c5.67,-1.61 11.81,-5.24 21.14,-10.48m-20.9,10.27c6.89,-4.28 15.12,-8.11 22.9,-10.93m-2.16,-0.39c-1.33,-0.98 -6.24,-2.92 -21.48,-13.88m22.96,15.02c-6.19,-4.46 -13.19,-8.36 -22.47,-13.24m0.65,-0.03c-0.57,-0.36 -0.47,-0.83 -1.06,-1.69m0.91,1.66c-0.33,-0.32 -0.57,-0.84 -1.01,-1.55" fill="none" stroke="#000000" stroke-width="4"/>
    </g>
   </g>
   <mask/>
  </symbol>
 </defs>
 <g class="layer">
  <title>Layer 1</title>
  <use id="svg_34" transform="matrix(1.65173 0 0 1.65173 -1.54578 0.635999)" x="-16.73" xlink:href="#svg_26" y="-19.87"/>
 </g>
</svg>

<svg version="1.1" xmlns="http://www.w3.org/2000/svg" viewBox="0 0 138.30096109824444 139.43001089805875" width="276.6019221964889" height="278.8600217961175">
  <!-- svg-source:excalidraw -->
  
  <defs>
    <style class="style-fonts">
      @font-face {
        font-family: "Virgil";
        src: url("https://excalidraw.com/Virgil.woff2");
      }
      @font-face {
        font-family: "Cascadia";
        src: url("https://excalidraw.com/Cascadia.woff2");
      }
    </style>
    
  </defs>
  <g stroke-linecap="round" transform="translate(10 10) rotate(0 59.15048054912222 59.71500544902938)"><path d="M0 0 L118.3 0 L118.3 119.43 L0 119.43" stroke="none" stroke-width="0" fill="#000"></path><path d="M0 0 C45.44 0, 90.87 0, 118.3 0 M0 0 C35.27 0, 70.55 0, 118.3 0 M118.3 0 C118.3 46.38, 118.3 92.77, 118.3 119.43 M118.3 0 C118.3 46.44, 118.3 92.87, 118.3 119.43 M118.3 119.43 C78.43 119.43, 38.56 119.43, 0 119.43 M118.3 119.43 C81.02 119.43, 43.74 119.43, 0 119.43 M0 119.43 C0 75.52, 0 31.6, 0 0 M0 119.43 C0 89.39, 0 59.35, 0 0" stroke="#000000" stroke-width="4" fill="none"></path></g><g stroke-linecap="round" transform="translate(34.62133401598476 47.7382449063316) rotate(0 35.142404636641004 21.121394915338897)"><path d="M13.5 1.2 L63.32 2.6 L71.05 1.61 L68.36 13.64 L68.11 33.44 L70.88 41.63 L60.9 43.44 L7.17 43.28 L3.16 41.46 L-2.23 32.33 L-0.38 7.16 L6.28 -3.03 L14.22 1.73" stroke="none" stroke-width="0" fill="#ffffff"></path><path d="M10.56 0 M10.56 0 C24.14 -0.84, 36.58 1.38, 59.72 0 M10.56 0 C26.12 -0.29, 40.6 -0.68, 59.72 0 M59.72 0 C69.49 -3.11, 66.6 6.22, 70.28 10.56 M59.72 0 C67.35 -3.97, 67.24 -0.94, 70.28 10.56 M70.28 10.56 C66.82 18.74, 69.95 17.47, 70.28 31.68 M70.28 10.56 C72.2 17.12, 69.73 19.14, 70.28 31.68 M70.28 31.68 C70 38.95, 64.32 43.22, 59.72 42.24 M70.28 31.68 C70.32 40.72, 64.85 41.34, 59.72 42.24 M59.72 42.24 C44.05 41.33, 37.27 45.75, 10.56 42.24 M59.72 42.24 C45.72 41.74, 29.83 42.08, 10.56 42.24 M10.56 42.24 C1 44.75, -0.86 39.6, 0 31.68 M10.56 42.24 C4.29 40.03, 3.82 37.52, 0 31.68 M0 31.68 C-2.53 27.16, 2.26 24.92, 0 10.56 M0 31.68 C-0.3 24, -0.77 19.37, 0 10.56 M0 10.56 C2.84 6.61, 4.98 -1.12, 10.56 0 M0 10.56 C2.34 2.97, -0.24 3.62, 10.56 0" stroke="#ffffff" stroke-width="4" fill="none"></path></g><g stroke-linecap="round"><g transform="translate(60.14675898112546 55.827289767525144) rotate(0 11.647195648800334 12.910642331526105)" fill-rule="evenodd"><path d="M-1.07 0.27 L1.5 26.67 L23.27 13.86 L2.69 1.1" stroke="none" stroke-width="0" fill="#000" fill-rule="evenodd"></path><path d="M1.62 1.01 C0.52 10.02, -1.69 19.36, 0.44 25.91 M0.3 0.09 C-0.84 7.02, 0.56 12.21, -0.21 24.45 M0.61 25.32 C6.28 23.71, 12.42 20.08, 21.75 14.84 M0.85 25.11 C7.74 20.83, 15.97 17, 23.75 14.18 M21.59 13.79 C20.26 12.81, 15.35 10.87, 0.11 -0.09 M23.07 14.93 C16.88 10.47, 9.88 6.57, 0.6 1.69 M1.25 1.66 C0.68 1.3, 0.78 0.83, 0.19 -0.03 M1.1 1.63 C0.77 1.31, 0.53 0.79, 0.09 0.08" stroke="#000000" stroke-width="4" fill="none"></path></g></g><mask></mask></svg>
